X:359
T:Hopeful Lover #2, The
C:Joe Buchanan's Scottish Tome - Page 172.2
I:172 2
Z:Carl Allison
R:March
L:1/8
M:4/4
K:A
"A"AAAA c2 e2 | "A"a2 a2 f2 e2 | "A"AAAA c2 e2 | "F#m"a2 a2 "D"f4 |
"A"AAAA c2 e2 | "A"a2 a2 f2 e2 | "D"f2 > e2 "A"c2 A2 | "A"(E2 "D"F2) "A"A4 :|
"A"c2 > c2 c2 B2 | "A"c2 e2 f2 e2 | "A"c2 > c2 c2 e2 | "B7"cB A2 "E"B4 |
"A"c2 > c2 c2 B2 | "A"c2 e2 "D"f2 "A"e2 | "D"fgaf "E7"e2 > B2 | "A"cB "D"A2 "A"A4 :|

